!!!COM: Frescobaldi, Girolamo
!!!CDT: 1583///-1643
!!!ONM: No. 1
!!!OTL: No. 1: Canzon Prima Canto solo
!!!OPR: Canzoni da sonare a una, due, tre et quattro, libro primo
!!!PPP: Venezia
!!!PDT: 1634
!!!URL: http://icking-music-archive.org/ByComposer/Frescobaldi.html
!!!ONB: Andrea Friggi, ed.
**kern	**kern
!Basso ad Organo	!Canto Solo
*staff2	*staff1
*Icello	*Ivioln
*clefF4	*clefG2
*k[]	*k[]
*met(C)	*met(C)
*M4/4	*M4/4
*MM120	*MM120
=1-	=1-
2G\	1r
4G\	.
4E\	.
=2	=2
4A\	1r
8G\L	.
8F#\J	.
4G\	.
4Fn\	.
=3	=3
4E\	2gg\
4D\	.
4.C/	4gg\
.	4ee\
8BB/	.
=4	=4
4AA/	4aa\
4D\	8gg\L
.	8ff#\J
4GG/	4gg\
4AA/	4ee\
=5	=5
2D\	2ff#\
4D\	2r
4BB/	.
=6	=6
4E\	1r
8D/L	.
8C/J	.
4BB/	.
4C/	.
=7	=7
2GG/	2dd\
4.G\	4dd\
.	4b\
8G\	.
=8	=8
4E\	4ee\
4A\	8dd\L
.	8cc#\J
4F#\	4dd\
4G\	4b\
=9	=9
2C/	4cc\
.	8b/L
.	8a/J
4G\	4b\
4E\	4gg\
=10	=10
4.A\	4ff\
.	2ee\
8G\	.
4.F\	.
.	[4dd\
8G\	.
=11	=11
4.E\	4dd\]
.	2cc\
8F\	.
4.D\	.
.	[4b-\
8E\	.
=12	=12
4.C/	4b-\]
.	2a/
8D\	.
4.BB-/	.
.	[4g/
8C/	.
=13	=13
1AA	4g/]
.	4f/
.	2e/
=14	=14
1D	1f#
=15:|!	=15:|!
4D\	1r
4.G\	.
8E\	.
4A\	.
=16	=16
4D\	4.dd\
4GG/	.
.	8b\
4C/	4ee\
4AA/	8dd\L
.	8cc#\J
=17	=17
4.BB/	8dd\L
.	8g\J
.	4.gg\
8GG/	.
4C/	.
.	8ee\
4C#/	4aa\
=18	=18
4D\	8ff#\L
.	8dd\J
4E\	2gg\
2D\	.
.	4ff#\
=19	=19
4.G\	2gg\
8E\	.
4A\	2r
4c\	.
=20	=20
4B\	4.gg\
4.c\	.
.	8ee\
.	4aa\
8A\	.
4d\	8gg\L
.	8ff\J
=21	=21
4G\	4gg\
4E\	4.cc\
4.F\	.
.	8a/
.	[4ff\
8D\	.
=22	=22
4.B-\	8ff\L]
.	8dd\J
.	4.gg\
8G\	.
4.c\	.
.	8ff\L
.	8ee\
8Bn\	8dd\J
=23	=23
4A\	4.cc\
4.F\	.
.	8a/
.	4dd\
8D\	.
4A\	4cc#\
=24	=24
4F#\	4dd\
4G\	2b-\
2C/	.
.	8a/L
.	8g/J
=25	=25
4D\	4f#/
8BB-/L	2g/
8C/J	.
2D\	.
.	4f#/
=26	=26
1GG	1g
=27	=27
*M3/2	*M3/2
2G\	1.r
2F\	.
2E\	.
=28	=28
2.A\	1.r
4A\	.
4G\	.
4F#\	.
=29	=29
2G\	2gg\
4A\	2ff\
4B\	.
2c\	2ee\
=30	=30
2.F\	2.aa\
4F\	4aa\
4E\	4gg\
4D\	4ff\
=31	=31
2C/	1ee
2BB/	.
2AA/	2r
=32	=32
2.BB/	1.r
4C/	.
2D\	.
=33	=33
2G\	2dd\
2E\	2cc\
2G\	2b\
=34	=34
2.C/	2.ee\
4C/	4ee\
4BB/	4dd\
4AA/	4cc\
=35	=35
2GG/	4b\
.	4cc\
2BB-/	2dd\
2AA/	2cc#\
=36	=36
1D	4.dd\
.	8ee\
.	4ff\
.	4gg\
2C/	4ee\
.	4ff\
=37	=37
1BB	4.dd\
.	8cc\
.	4dd\
.	4ee\
2AA/	4cc\
.	4dd\
=38	=38
2GG/	2b\
2F\	4a/
.	4b\
2E\	2cc#\
=39	=39
2D\	2dd\
2C/	4ee\
.	4ff\
4BB/	2gg\
4C/	.
=40	=40
2D\	4ff#\
.	4gg\
4C#/	2aa\
4D\	.
2E\	2gg#\
=41	=41
*met(C)	*met(C)
*M4/4	*M4/4
2AA/	2aa\
2BB/	4r
.	[4dd\
=42	=42
2.EE/	4dd\]
.	8cc\L
.	8b\J
.	[2cc\
4FF/	.
=43	=43
1GG	2cc\]
.	2b\
=44	=44
*clefC4	*
*MM164	*
4c\	1r
8c\L	.
8c\J	.
4c\	.
8B\L	.
8c\J	.
=45	=45
4A\	1r
8d\L	.
8c\J	.
4B\	.
4A\	.
=46	=46
2G/	4gg\
.	8gg\L
.	8gg\J
4c\	4gg\
[4d\	8ff#\L
.	8gg\J
=47	=47
4d\]	4ee\
4c#\	8aa\L
.	8gg\J
4d\	8ff\L
.	16gg\L
.	16ff\JJ
4G/	8ee\L
.	8dd\J
=48	=48
4A\	8cc#\L
.	8a\J
8G/L	2dd\
8F/J	.
4G/	.
4A\	4cc#\
=49	=49
*clefF4	*
4D\	2dd\
8D\L	.
8D\J	.
4D\	2r
8C#/L	.
8D/J	.
=50	=50
4BB/	1r
8E\L	.
8D\J	.
4C#/	.
4D\	.
=51	=51
2GG/	4dd\
.	8dd\L
.	8dd\J
4G\	4dd\
8E\L	8cc#\L
8F#\J	8dd\J
=52	=52
4G\	4b\
4E\	8ee\L
.	8dd\J
4A\	8cc\L
.	8dd\
4G\	8b\
.	8cc\J
=53	=53
2F\	4a/
.	4ff\
4C/	4.ee\
4D\	.
.	8dd\
=54	=54
4AA/	8cc#\L
.	8a\J
4FF#/	4aa\
2GG/	4gg\
.	4ff\
=55	=55
2AA/	4.ee\
.	8ee\
4D\	2dd\
8D\L	.
8D\J	.
=56	=56
4BB/	1r
8C/L	.
8BB/J	.
4AA/	.
4D\	.
=57	=57
4G\	4r
8G\L	4dd\
8G\J	.
4G\	4b\
8F#\L	4dd\
8G\J	.
=58	=58
4E\	4dd\
8A\L	4cc#\
8G\J	.
4F#\	2dd\
4G\	.
=59	=59
4C/	4r
8C/L	4gg\
8C/J	.
4C/	4ee\
8BB/L	4gg\
8C/J	.
=60	=60
4AA/	4gg\
4D\	4ff#\
2GG/	4gg\
.	8gg\L
.	8gg\J
=61	=61
4G\	4gg\
8A\L	8ff#\L
8B\J	8gg\J
4c\	4ee\
4A\	8aa\L
.	8gg\J
=62	=62
4D\	8ff\L
.	8gg\
4C/	8ee\
.	8ff\J
2BB-/	8dd\L
.	8ff\
.	8ee\
.	8dd\J
=63	=63
4.AA/	8cc#\L
.	8a\J
.	4.ee\
8GG/	.
4F#\	.
.	8dd\
4G\	[4dd\
=64	=64
4E\	4dd\]
4A\	4cc#\
2F#\	[2dd\
=65	=65
2.G\	8dd\L]
.	8cc\
.	8b-\
.	8a\J
.	16b-\LL
.	16a\
.	16b-\
.	16cc\JJ
4G\	16dd\LL
.	16ee\
.	16ff\
.	16gg\JJ
=66	=66
2F#\	2aa\
2G\	2dd\
=67	=67
1C	1ee
=68	=68
*M2/2	*M2/2
2c\	1.r
4A\	.
4c\	.
2B\	.
=69	=69
2.A\	4r
.	4cc\
.	4a/
4A\	4cc\
2G\	2b\
=70	=70
2F\	4a/
.	4aa\
4D\	4aa\
4F\	4aa\
2E\	2gg\
=71	=71
2D\	4r
.	4ff\
4D\	4dd\
4D\	4ff\
2C/	4ee\
.	8ff\L
.	8ee\J
=72	=72
1BB-	4dd\
.	4ee\
.	4ff\
.	4gg\
2FF/	2aa\
=73	=73
2BB-/	1dd
4GG/	.
4BB-/	.
2AA/	2r
=74	=74
4GG/	2b-\
4G\	.
4D\	4b-\
4E\	4b-\
2F\	2a/
=75	=75
1E-	4g/
.	4cc\
.	4g/
.	4a/
2D\	2b-\
=76	=76
1F	4a/
.	4ff\
.	4cc\
.	4dd\
2C/	2ee-\
=77	=77
2.D\	1dd
4E\	.
2F\	2cc\
=78	=78
*met(C)	*met(C)
*M4/4	*M4/4
2BB-/	1dd
2B-\	.
=79	=79
1F#	1r
=80	=80
2G\	8r
.	8dd\L
.	8b\
.	8dd\J
2E\	8cc\L
.	16b\L
.	16cc\JJ
.	8g/L
.	8b/J
=81	=81
2F\	8a\L
.	8aa\
.	8ff\
.	8aa\J
4.F#\	8dd\L
.	16ee\L
.	16dd\JJ
.	8cc\L
8F#\	8dd\J
=82	=82
2G\	8b\L
.	8ee\
.	8dd\
.	8ee\J
4.G#\	8b\L
.	16ee\L
.	16dd\JJ
.	8cc\L
8G#\	8b\J
=83	=83
8A\L	2cc\
8c\	.
8A\	.
8c\J	.
4G\	2r
8A\L	.
8G\J	.
=84	=84
4F\	2r
4G\	.
8c\L	2ee\
8B\	.
8A\	.
8G\J	.
=85	=85
8F\L	2ff\
8G\	.
8F\	.
8E\J	.
8D\L	4.ff#\
8E\	.
8D\	.
8C\J	8ff#\
=86	=86
8BB/L	2gg\
8AA/	.
8GG/	.
8FF/J	.
4EE/	4.gg#\
4E\	.
.	8gg#\
=87	=87
2AA/	2aa\
2A\	8r
.	8ee\L
.	8cc\
.	[8ff\J
=88	=88
2B-\	8ff\L]
.	16ee\L
.	16ff\JJ
.	4dd\
4.Bn\	8r
.	8gg\L
.	8ff\
8B\	8gg\J
=89	=89
4c\	8ee\L
.	8gg\
4C/	8ee\
.	[8aa\J
2C#/	8aa\L]
.	16gg\L
.	16aa\JJ
.	8ee\L
.	8gg\J
=90	=90
2D\	2ff#\
4E-\	8r
.	8cc/L
4En\	8g/
.	[8cc/J
=91	=91
4F\	8cc\L]
.	16b\L
.	16cc\JJ
4F#\	8a\L
.	8dd\J
4G\	8b\
.	4ee\
4G#\	.
.	16dd\LL
.	16ee\JJ
=92	=92
4A\	2cc#\
4AA/	.
4.BB-/	8dd\L
.	8g\J
.	[4gg\
8BBn/	.
=93	=93
4.C/	8gg\L]
.	16ff\L
.	16gg\JJ
.	8ee\L
8C#/	8aa\J
2D\	4.ff#\
.	16ee\LL
.	16ff#\JJ
=94	=94
0GG	0gg
==	==
*-	*-
!!!ENC: Craig Stuart Sapp
!!!END: 2004/12/14/
